public/images/bell-big.svg

<svg width="16" height="18" viewBox="0 0 16 18" xmlns="http://www.w3.org/2000/svg"><title>Shape</title><path d="M12.65 7.512C10.37 2.605 9.184.742 5.46.82 4.13.845 4.45-.144 3.437.23c-1.01.375-.143.924-1.177 1.773-2.9 2.383-2.634 4.587-1.288 9.84.567 2.213-1.367 2.32-.602 4.465.56 1.564 4.68 2.22 9.025.607 4.347-1.613 7.086-4.814 6.527-6.378-.765-2.146-2.31-.962-3.272-3.028zm-3.726 8.083c-3.882 1.44-7.072.594-7.207.217-.232-.65 1.253-2.816 5.69-4.463 4.44-1.648 6.916-1.037 7.175-.312.153.43-1.775 3.116-5.658 4.557zM7.676 12.1c-2.03.754-3.44 1.615-4.353 2.39.643.584 1.847.726 3.046.28 1.526-.564 2.465-1.865 2.094-2.903l-.016-.036c-.25.083-.508.172-.772.27z" fill="#504353" fill-rule="evenodd"/></svg>

<?xml version="1.0" encoding="UTF-8" standalone="no"?>
<svg width="25px" height="25px" viewBox="0 0 25 25" version="1.1" xmlns="http://www.w3.org/2000/svg" xmlns:xlink="http://www.w3.org/1999/xlink" xmlns:sketch="http://www.bohemiancoding.com/sketch/ns">
    <!-- Generator: Sketch 3.4.2 (15855) - http://www.bohemiancoding.com/sketch -->
    <title>bell-big</title>
    <desc>Created with Sketch.</desc>
    <defs></defs>
    <g id="Page-1" stroke="none" stroke-width="1" fill="none" fill-rule="evenodd" sketch:type="MSPage">
        <g id="bell-big" sketch:type="MSArtboardGroup" fill="#504353">
            <g sketch:type="MSLayerGroup" transform="translate(5.000000, 4.000000)" id="Shape">
                <path d="M12.65,7.512 C10.37,2.605 9.184,0.742 5.46,0.82 C4.13,0.845 4.45,-0.144 3.437,0.23 C2.427,0.605 3.294,1.154 2.26,2.003 C-0.64,4.386 -0.374,6.59 0.972,11.843 C1.539,14.056 -0.395,14.163 0.37,16.308 C0.93,17.872 5.05,18.528 9.395,16.915 C13.742,15.302 16.481,12.101 15.922,10.537 C15.157,8.391 13.612,9.575 12.65,7.509 L12.65,7.512 Z M8.924,15.595 C5.042,17.035 1.852,16.189 1.717,15.812 C1.485,15.162 2.97,12.996 7.407,11.349 C11.847,9.701 14.323,10.312 14.582,11.037 C14.735,11.467 12.807,14.153 8.924,15.594 L8.924,15.595 Z M7.676,12.1 C5.646,12.854 4.236,13.715 3.323,14.49 C3.966,15.074 5.17,15.216 6.369,14.77 C7.895,14.206 8.834,12.905 8.463,11.867 L8.447,11.831 C8.197,11.914 7.939,12.003 7.675,12.101 L7.676,12.1 Z" sketch:type="MSShapeGroup"></path>
            </g>
        </g>
    </g>
</svg>
